X:1
T:Title
%%score { ( 1 4 ) | ( 2 3 ) }
L:1/8
M:4/4
K:G
V:1 treble nm="Grand Piano"
V:4 treble 
V:2 treble 
V:3 treble 
V:1
 z4 z2[Q:1/4=100] d>c | B2 B>B cBAG | [EG]2 [EG]>[EG] [FA][EG][DF]E | D2 GB B2 GB | %4
 B4 A2 [Fd]>[Fc] |[M:3/4] B2 B>B cB |[M:1/4] AG |[M:4/4] [EG]2 [EG]>[EG] [FA][EG][DF]E | %8
 D2 G[GB] [GB]2 GB |[M:3/4] A4 G2 |[M:12/8][K:bass] D,G,A,[K:treble] z3 G2 G G2 A, | %11
 G,2 D, z2 G G2[K:treble] G .G3 | E,F,[K:treble]G, z3 G2 G .[^CEG]3 | %13
 z3 z2 [DF] [DF]2 [DG] .[CFA]3 | z6 G2 G G2[K:bass] A, | G,2 D, z2 G G2[K:treble] G .G3 | %16
 E,F,G,[K:treble] z3 G2 G G2 C |[M:9/8] B,2 A, z2 G G2 G | G3 z3 z3 |] %19
V:2
 z4 z2 [G,B,G]>[G,EG] | z4 .E2[K:bass] z2 | [C,C]2 [C,C]>[C,C] [C,C]2 [C,G,][C,G,C] | %3
 [G,B,]2[K:treble] [G,B,D][G,DG] [G,DG]2 [G,B,D][G,D] | [D,G,D]4 [D,F,D]2 [D,D]>[D,D] | %5
[M:3/4][K:treble] z2 z2 .E2 |[M:1/4][K:bass] [G,CD][G,B,D] |[M:4/4] [C,C]2 [C,C]>[C,C] [C,C]2 z C | %8
 [D,G,B,]2 [D,B,D][D,D] [D,D]2 [D,B,D][D,G,D] |[M:3/4] [D,CD]4[K:treble] [G,B,D]2 | %10
[M:12/8] z6 D2 D .D3 | z3 z2 [CE] [CE]2 [CE] .[CE]3 | z6[K:bass] [^CE]2 [CE] A,B,A, | %13
 G,F,E, z2 A, A,2 B, D,3 | z3[K:treble] B,6- B,2 z | z3 z2 [CE] [CE]2 [CE] .[CE]3 | %16
 z6 [B,D]2 [B,D] .[B,D]3 |[M:9/8] z3 z2 [B,D] [CE]2 [CE] | [B,D]3 z3 z3 |] %19
V:3
 x8 | [G,DG]2 [G,DG]>[G,DG] [G,G]-[G,DG][K:bass][G,CD][G,B,D] | x8 | x2[K:treble] x6 | x8 | %5
[M:3/4][K:treble] [G,DG]2 [G,DG]>[G,DG] [G,G]-[G,DG] |[M:1/4][K:bass] x2 |[M:4/4] z4 z2 [C,G,]2 | %8
 x8 |[M:3/4] x4[K:treble] x2 |[M:12/8] x12 | x12 | x6[K:bass] x6 | z3 D,6 z3 | %14
 D,G,[K:treble]A, z3 D2 D .D3 | x12 | x12 |[M:9/8] x9 | x9 |] %19
V:4
 x8 | x8 | x8 | x8 | x8 |[M:3/4] x6 |[M:1/4] x2 |[M:4/4] x8 | x8 |[M:3/4] x6 | %10
[M:12/8][K:bass] z3[K:treble] B,6- B,2 z | z3 E,3- E,6[K:treble] | z3[K:treble] A,6 z3 | x12 | %14
 x11[K:bass] x | z3 E,3- E,6[K:treble] | z3[K:treble] D,6- D,2 z |[M:9/8] z3 G,6- | G,3 z3 z3 |] %19

